X: 11674
T: Eileen O'Riordan's
R: slide
M: 12/8
K: Adorian
|:A2 G|E2 A ABA G2 A Bcd|efe d2 B A2 G E2 D|
E2 A ABA G2 A Bcd|efe dcB A3:|
|:Bcd|e3 efe d3 c2 d|e2 A B2 A G2 E F2 D|
E2 A ABA G2 A Bcd|efe dcB A3:|

